X:399
T:Lady Doll St. Clair's Reel
C:John Johnson, 1750
L:1/4
M:2/2
S:Colin Hume's website,  colinhume.com  - chords can also be printed below the stave.
N:Converted from 4 beats to the bar to 2.
Q:1/2=110
K:D
P:A
|: B | "A"A/A/A cA | "D"dB "A"cA | "G"Bg- gd | "G"BG GB |\
"A"A/A/A cA | "D"dB "A"cA | "Bm"Ba- "E7"ae | "A"cA A :|
P:B
|| g | "A"a/g/f/e/ ca | "A"ea ca | "G"Bg- gd | "G"BG Gg |\
"A"a/g/f/e/ ca | "A"ea ca | "Bm"Ba- "E7"ae | "A"cA Ag |
P:C
"A"a/g/f/e/ ca | "A"ea ca | "G"Bg- gd | "G"BG Gg |\
"D"a/g/f "A7/C#"g/f/e | "Bm"f/e/d "A"e/d/c | "Bm"Ba- "E7"ae | "A"cA A |]

